X:1
T:Title
%%score ( 1 2 ) { 3 | 4 }
L:1/8
Q:1/4=117
M:4/4
K:D
V:1 treble nm="Grand Piano, Soprano"
V:2 treble 
V:3 bass nm="Choir Pad, Jerusalem (Praetorius)"
V:4 bass 
V:1
 [Fd]4 [DA]4 | [CF]2 D4 [DF]2 | [DG]2 [DA]2 [DB]2 [DB]2 | [DA]4 z2 [DB]2 | [CA]2 E2 [DF]2 [B,^G]2 | %5
w: By~Michael~Praetorius,~1610 *|||||
 [EA]8 | [Fd]4 [DA]4 | [CF]2 D4 [DF]2 | [DG]2 [DA]2 [DB]2 [DB]2 | [DA]4 z2 [DB]2 | %10
w: |||||
 [CA]2 E2 [DF]2 [B,^G]2 | [EA]8 | z2 [GB]2 [GB]2 [FB]2 | z4 A4 | [DF]2 [DA]2 [DB]2 [CA]2 | %15
w: |||||
 [DG]2 [DF]2 [CE]4 | [Dd]4 [DB]2 [CA]2 | z4 z2 .F2 | [EA]2 [DF]2 [DG]2 [DF]2 | [DE]2 [CE]2 D4- | %20
w: |||||
 D4 z4 |] %21
w: |
V:2
 x8 | x8 | x8 | x8 | x8 | x8 | x8 | x8 | x8 | x8 | x8 | x8 | x8 | [Fd]2 [DB]2 D2 C2 | x8 | x8 | %16
 x8 | [DG]2 [DF]2 E2 D-[D^G] | x8 | x8 | x8 |] %21
V:3
 A,4 A,4 | A,2 F,4 A,2 | B,2 A,2 G,2 G,2 | F,4 z2 G,2 | E,2 A,2 A,2 D2 | C8 | A,4 A,4 | %7
 A,2 F,4 A,2 | B,2 A,2 G,2 G,2 | F,4 z2 G,2 | E,2 A,2 A,2 D2 | C8 | z2 D2 D2 G,2 | %13
 A,2 G,F, E,2 A,2 | A,2 A,2 G,2 E,2 | B,2 A,2 A,4 | F,4 G,2 E,2 | B,2 A,2 A,2 D2 | C2 A,2 B,2 A,2 | %19
 A,2 E,2 F,4- | F,4 z4 |] %21
V:4
 D,4 F,4 | z2 D,4 D,2 | B,,2 F,,2 G,,A,,B,,C, | D,4 z2 G,,2 | A,,2 C,2 D,C, B,,2 | A,,8 | D,4 F,4 | %7
 z2 D,4 D,2 | B,,2 F,,2 G,,A,,B,,C, | D,4 z2 G,,2 | A,,2 C,2 D,C, B,,2 | A,,8 | z2 G,,2 G,2 E,2 | %13
 D,2 G,,2 A,,4 | D,2 F,,2 G,,2 A,,2 | B,,C, D,2 A,,4 | B,,4 G,,2 A,,2 | B,,2 D,2 C,2 B,,2 | %18
 A,,2 D,2 G,,2 D,2 | A,,2 A,,2 D,4- | D,4 z4 |] %21

